!!!Genre:	Skotshne
!!!Mode:	Altered Dorian
!!!Listening/dance:	dance
!!!:	*G:
!!!One_Mode:	no
**kern
*part1
*staff1
*clefG2
*k[b-]
*g:dor
*M2/4
(>16.cc#XLL
32eeJJk
=1
4.dd)
(>16.cc#XLL
32eeJJk
=2
4.dd)
(>16.cc#XLL
32eeJJk
=3
8dd)
8r
8dd
8r
=4
4dd
8r
16eeLL
16ddJJ
=5
16cc#XLL
16dd
16b-
16ddJJ
16cc#LL
16dd
16ee
16ddJJ
=6
16cc#XLL
16dd
16b-
16ddJJ
16cc#LL
16dd
16ee
16ddJJ
=7
16cc#XLL
16dd
16b-
16ddJJ
16cc#LL
16dd
16ee
16ddJJ
=8
(>16ddLL
16cc#X)
(>16cc#
16b-JJ)
(<16b-LL
16a)
(<16a
16gJJ)
=9
(>8qee/
2dd)
=10
2gg
=11
4bb-
4gg
=12
(>8qcc#X/
4dd)
8r
16eeLL
16ddJJ
=13
16cc#XLL
16dd
16b-
16ddJJ
16cc#LL
16dd
16ee
16ddJJ
=14
16cc#XLL
16dd
16b-
16ddJJ
16cc#LL
16dd
16ee
16ddJJ
=15
16cc#XLL
16dd
16b-
16ddJJ
16cc#LL
16dd
16ee
16ddJJ
=16
(>16ddLL
16cc#X)
(>16cc#
16b-JJ)
(<16b-LL
16aJ
8gJ)
=17
8r
8b-
(>8qdd/
8cc#XL)
8b-J
=18
(>8qdd/
8cc#XL)
8b-J
16b-LL
16aJ
8gJ
=19
(>8qee/
8ddL)
16gL
16aJJ
16b-LL
16aJ
8gJ
=20
8ddL
(>16cc#XL
16eeJJ
4dd)
=21
8r
8b-
8cc#XL
8b-J
=22
8cc#XL
8b-J
16b-LL
16aJ
8gJ
=23
8.b-L
16aJk
16b-LL
16a
16g
16f#XJJ
=24
4g
4dd
*>bM
*g:dor
=49||
*k[b-]
16cc#XLL
16dd
16b-
16ddJJ
16cc#LL
16dd
16ee
16ddJJ
=50
16cc#XLL
16dd
16b-
16ddJJ
16cc#LL
16dd
16ee
16ddJJ
=51
16cc#XLL
16dd
16b-
16ddJJ
16cc#LL
16dd
16ee
16ddJJ
=52
(>16ddLL
16cc#X)
(>16cc#
16b-JJ)
(<16b-LL
16a)
(<16a
16gJJ)
=53
2dd
=54
[2gg
=55
4gg]
4dd
=56
8b-L
(>8qee/
8ddJ)
16cc#XLL
16dd
16ee
16ddJJ
=57
16cc#XLL
16dd
16b-
16ddJJ
16cc#LL
16dd
16ee
16ddJJ
=58
16cc#XLL
16dd
16b-
16ddJJ
16cc#LL
16dd
16ee
16ddJJ
=59
16cc#XLL
16dd
16b-
16ddJJ
16cc#LL
16dd
16ee
16ddJJ
=60
(>16ddLL
16cc#X)
(>16cc#
16b-JJ)
(<16b-LL
16a)
(<16a
16gJJ)
=61
4gg
4dd
=62
2g
==
*-
